COLOR/action 16/16/other-driver.svg

<svg height="16" width="16" xmlns="http://www.w3.org/2000/svg" xmlns:xlink="http://www.w3.org/1999/xlink"><linearGradient id="a" gradientUnits="userSpaceOnUse" x1="-11.42859272" x2="-4.57145" y1="-15.99999692" y2=".00000276"><stop offset="0" stop-color="#319741"/><stop offset="1" stop-color="#0e8420"/></linearGradient><circle cx="-8" cy="-8" fill="url(#a)" r="8" transform="scale(-1)"/><path d="m8 0a8 8 0 0 0 -8 8 8 8 0 0 0 .00976563.2929688 8 8 0 0 1 7.99023437-7.7929688 8 8 0 0 1 7.990234 7.7070312 8 8 0 0 0 .009766-.2070312 8 8 0 0 0 -8-8z" fill="#fff" opacity=".3"/><path d="m8.0000195 16a8 8 0 0 0 7.9999995-8.0000004 8 8 0 0 0 -.0098-.292968 8 8 0 0 1 -7.9902345 7.7929684 8 8 0 0 1 -7.990234-7.7070314 8 8 0 0 0 -.00977.207031 8 8 0 0 0 8 8.0000004z" opacity=".2"/><path d="m280.99955-93.666618c-.00054 0-.0008.000127-.002.00096-.0008.000133-.0008.000799-.0008.0012-.0008.0004-.0008.001-.002.0014-.0008.000399-.0008.000399-.002.00096-.67472 1.447999-1.19608 2.923699-1.49252 3.827938-.97517.0008-2.58133.03778-4.11217.236476-.00013.000533-.00026.0008.00027.0012-.00013.00096.00053.0014.0008.0018.00014.00096.00054.0012.0008.0014.00014.00096.00027.0008.00054.0012 1.16862 1.089165 2.4111 2.041025 3.17949 2.602401-.30069.927647-.76193 2.466776-1.04602 3.984151.0004.000267.00053.0004.002 0 .0008.0004.002-.000133.002-.000266.0008.000133.002-.000134.002-.000266.0008.000132.0008.000132.002 0 1.39706-.774896 2.68636-1.662182 3.45769-2.219491.78936.57265 2.11085 1.486813 3.46603 2.225821.0004-.000266.0004-.000799.00027-.0014.00053-.000534.00027-.0014.00027-.0017.0004-.0008.00026-.0014.00026-.0017.0004-.0008.00054-.00096.00054-.0015-.30526-1.568146-.7509-3.068573-1.04257-3.974371.78856-.573777 2.06601-1.54774 3.18755-2.608155-.00014-.0004-.0004-.0008-.002-.00096-.0004-.0008-.0008-.0008-.002-.00096-.00054-.000532-.002-.000799-.002-.00096-.00054-.000532-.00054-.00096-.0008-.0012-1.58567-.194257-3.15021-.233969-4.10182-.236477-.30204-.9273-.83381-2.443249-1.49568-3.837432z" fill="#fff" stroke-width=".800001" transform="matrix(.71349383054 0 0 .74998192793 -192.48817077229 74.24828515871)"/></svg>

<?xml version="1.0" encoding="UTF-8" standalone="no"?>
<svg
   xmlns:dc="http://purl.org/dc/elements/1.1/"
   xmlns:cc="http://creativecommons.org/ns#"
   xmlns:rdf="http://www.w3.org/1999/02/22-rdf-syntax-ns#"
   xmlns:svg="http://www.w3.org/2000/svg"
   xmlns="http://www.w3.org/2000/svg"
   xmlns:xlink="http://www.w3.org/1999/xlink"
   xmlns:sodipodi="http://sodipodi.sourceforge.net/DTD/sodipodi-0.dtd"
   xmlns:inkscape="http://www.inkscape.org/namespaces/inkscape"
   height="16"
   width="16"
   version="1.1"
   id="svg10"
   sodipodi:docname="other-driver.svg"
   inkscape:version="0.92.5 (2060ec1f9f, 2020-04-08)">
  <metadata
     id="metadata16">
    <rdf:RDF>
      <cc:Work
         rdf:about="">
        <dc:format>image/svg+xml</dc:format>
        <dc:type
           rdf:resource="http://purl.org/dc/dcmitype/StillImage" />
        <dc:title />
      </cc:Work>
    </rdf:RDF>
  </metadata>
  <defs
     id="defs14">
    <linearGradient
       inkscape:collect="always"
       xlink:href="#linearGradient10935"
       id="linearGradient11065"
       x1="104"
       y1="44"
       x2="200"
       y2="268"
       gradientUnits="userSpaceOnUse"
       gradientTransform="matrix(0.07142857,0,0,0.07142857,-18.857164,-19.142854)" />
    <linearGradient
       id="linearGradient10935">
      <stop
         id="stop10931"
         offset="0"
         style="stop-color:#319741;stop-opacity:1" />
      <stop
         id="stop10933"
         offset="1"
         style="stop-color:#0e8420;stop-opacity:1" />
    </linearGradient>
  </defs>
  <sodipodi:namedview
     pagecolor="#ffffff"
     bordercolor="#666666"
     borderopacity="1"
     objecttolerance="10"
     gridtolerance="10"
     guidetolerance="10"
     inkscape:pageopacity="0"
     inkscape:pageshadow="2"
     inkscape:window-width="1920"
     inkscape:window-height="1016"
     id="namedview12"
     showgrid="false"
     inkscape:zoom="52.5625"
     inkscape:cx="7.9999998"
     inkscape:cy="8"
     inkscape:window-x="0"
     inkscape:window-y="27"
     inkscape:window-maximized="1"
     inkscape:current-layer="g10" />
  <circle
     style="display:inline;opacity:1;fill:url(#linearGradient11065);fill-opacity:1;stroke:none;stroke-width:0.07142857;stroke-linecap:round;stroke-linejoin:round;stroke-miterlimit:4;stroke-dasharray:none;stroke-opacity:1;enable-background:new"
     id="path11042"
     r="8"
     cy="-8"
     cx="-8"
     transform="scale(-1)" />
  <path
     style="display:inline;opacity:0.3;fill:#ffffff;fill-opacity:1;stroke:none;stroke-width:0.07142857;stroke-linecap:round;stroke-linejoin:round;stroke-miterlimit:4;stroke-dasharray:none;stroke-opacity:1;enable-background:new"
     d="M 8 0 A 8 8 0 0 0 0 8 A 8 8 0 0 0 0.009765625 8.2929688 A 8 8 0 0 1 8 0.5 A 8 8 0 0 1 15.990234 8.2070312 A 8 8 0 0 0 16 8 A 8 8 0 0 0 8 0 z "
     id="circle847" />
  <path
     id="path856"
     d="M 8.0000195,16 A 8,8 0 0 0 16.000019,7.9999996 8,8 0 0 0 15.990219,7.7070316 8,8 0 0 1 7.9999845,15.5 8,8 0 0 1 0.0097505,7.7929686 a 8,8 0 0 0 -0.00977,0.207031 8,8 0 0 0 8,8.0000004 z"
     style="display:inline;opacity:0.2;fill:#000000;fill-opacity:1;stroke:none;stroke-width:0.07142857;stroke-linecap:round;stroke-linejoin:round;stroke-miterlimit:4;stroke-dasharray:none;stroke-opacity:1;enable-background:new"
     inkscape:connector-curvature="0" />
  <g
     id="g853"
     transform="matrix(0.66666601,0,0,0.66666601,2.6666767,2.6666694)">
    <g
       id="g10"
       transform="matrix(1.0702418,0,0,1.124974,-292.73256,107.37253)"
       style="fill:#fdc92b">
      <path
         id="path2"
         d="m 280.99955,-93.666618 c -5.4e-4,0 -8e-4,1.27e-4 -0.002,9.6e-4 -8e-4,1.33e-4 -8e-4,7.99e-4 -8e-4,0.0012 -8e-4,4e-4 -8e-4,10e-4 -0.002,0.0014 -8e-4,3.99e-4 -8e-4,3.99e-4 -0.002,9.6e-4 -0.67472,1.447999 -1.19608,2.923699 -1.49252,3.827938 -0.97517,8e-4 -2.58133,0.03778 -4.11217,0.236476 -1.3e-4,5.33e-4 -2.6e-4,8e-4 2.7e-4,0.0012 -1.3e-4,9.6e-4 5.3e-4,0.0014 8e-4,0.0018 1.4e-4,9.6e-4 5.4e-4,0.0012 8e-4,0.0014 1.4e-4,9.6e-4 2.7e-4,8e-4 5.4e-4,0.0012 1.16862,1.089165 2.4111,2.041025 3.17949,2.602401 -0.30069,0.927647 -0.76193,2.466776 -1.04602,3.984151 4e-4,2.67e-4 5.3e-4,4e-4 0.002,0 8e-4,4e-4 0.002,-1.33e-4 0.002,-2.66e-4 8e-4,1.33e-4 0.002,-1.34e-4 0.002,-2.66e-4 8e-4,1.32e-4 8e-4,1.32e-4 0.002,0 1.39706,-0.774896 2.68636,-1.662182 3.45769,-2.219491 0.78936,0.57265 2.11085,1.486813 3.46603,2.225821 4e-4,-2.66e-4 4e-4,-7.99e-4 2.7e-4,-0.0014 5.3e-4,-5.34e-4 2.7e-4,-0.0014 2.7e-4,-0.0017 4e-4,-8e-4 2.6e-4,-0.0014 2.6e-4,-0.0017 4e-4,-8e-4 5.4e-4,-9.6e-4 5.4e-4,-0.0015 -0.30526,-1.568146 -0.7509,-3.068573 -1.04257,-3.974371 0.78856,-0.573777 2.06601,-1.54774 3.18755,-2.608155 -1.4e-4,-4e-4 -4e-4,-8e-4 -0.002,-9.6e-4 -4e-4,-8e-4 -8e-4,-8e-4 -0.002,-9.6e-4 -5.4e-4,-5.32e-4 -0.002,-7.99e-4 -0.002,-9.6e-4 -5.4e-4,-5.32e-4 -5.4e-4,-9.6e-4 -8e-4,-0.0012 -1.58567,-0.194257 -3.15021,-0.233969 -4.10182,-0.236477 -0.30204,-0.9273 -0.83381,-2.443249 -1.49568,-3.837432 z"
         inkscape:connector-curvature="0"
         style="fill:#ffffff;stroke-width:0.80000079;fill-opacity:1" />
    </g>
  </g>
</svg>
